X: 735
T: Off To California
B: jims roots
M:4/4
L:1/8
R: hornpipe
Q: 1/4=100
K:Gmaj
V:1 
|: (3DEF| "G"GFGB "D"AGED|"G"GBdg "C"e2ef|"G"gfgd "Em"edBG|"Am"ABAG "D"E2DF|
   "G"GFGB "D"AGED|"G"GBdg "C"e2ef|"G"gfgd "Em"edBG|"D"AGEF "G"G2 :|
|: ef|"Em"gfeg "Bm"fedf|"C"edef "Em"edBf|"G"gfgd "Em"edBG|"Am"ABAG "D"E2DF|
   "G"GFGB "D"AGED|"G"GBdg "C"e2ef|"G"gfgd "Em"edBG|"D"AGEF "G"G2:|
% abcbook-tune_id 6298c27969937b5e25910969


% abcbook-boost 0
% abcbook-tablature 
% abcbook-transpose 
% abcbook-lastupdated 1654178425795
% abcbook-soundfonts 
% abcbook-repeats 1


